X: 15800
T: Goodnatured Man, The
R: hornpipe
M: 4/4
K: Gmajor
|:d>f|g2 (3bag d2- d>c|B>cd>B G2 (3GAB|c2 e>c A>DG>D|F>DA>D c2 (3def|
g2 b>g d2 g>d|B>cd>B G2- G>B|c2 (3edc B>GA>F|D2 G2 G2:|
|:B>c|d>^cd>B G2 (3GBd|e>^de>c A2 (3ABc|d2 d>B e>dc>B|F>GA>B (3cdc B>c|
d>^cd>B G2- G>d|e2 e>c A2- A>B|c>ed>c B>DA>D|G2 (3GGG G2:|

